lib/typescript/assets/images/icons/sign-out.svg

<svg xmlns="http://www.w3.org/2000/svg" width="24" height="24" viewBox="0 0 24 24">
  <path d="M4.70710678,12 L7.85355339,15.1464466 C8.04881554,15.3417088 8.04881554,15.6582912 7.85355339,15.8535534 C7.65829124,16.0488155 7.34170876,16.0488155 7.14644661,15.8535534 L3.14644661,11.8535534 C2.95118446,11.6582912 2.95118446,11.3417088 3.14644661,11.1464466 L7.14644661,7.14644661 C7.34170876,6.95118446 7.65829124,6.95118446 7.85355339,7.14644661 C8.04881554,7.34170876 8.04881554,7.65829124 7.85355339,7.85355339 L4.70710678,11 L15.5,11 C15.7761424,11 16,11.2238576 16,11.5 C16,11.7761424 15.7761424,12 15.5,12 L4.70710678,12 Z M10.5,4 C10.2238576,4 10,3.77614237 10,3.5 C10,3.22385763 10.2238576,3 10.5,3 L18.5,3 C19.8807119,3 21,4.11928813 21,5.5 L21,18.5 C21,19.8807119 19.8807119,21 18.5,21 L10.5,21 C10.2238576,21 10,20.7761424 10,20.5 C10,20.2238576 10.2238576,20 10.5,20 L18.5,20 C19.3284271,20 20,19.3284271 20,18.5 L20,5.5 C20,4.67157288 19.3284271,4 18.5,4 L10.5,4 Z"/>
</svg>

<svg xmlns="http://www.w3.org/2000/svg" width="24" height="24"><path d="m4.707 12 3.147 3.146a.5.5 0 0 1-.708.708l-4-4a.5.5 0 0 1 0-.708l4-4a.5.5 0 1 1 .708.708L4.707 11H15.5a.5.5 0 1 1 0 1H4.707zM10.5 4a.5.5 0 1 1 0-1h8A2.5 2.5 0 0 1 21 5.5v13a2.5 2.5 0 0 1-2.5 2.5h-8a.5.5 0 1 1 0-1h8a1.5 1.5 0 0 0 1.5-1.5v-13A1.5 1.5 0 0 0 18.5 4h-8z"/></svg>
